src/resources/assets/note-add.svg

<svg xmlns="http://www.w3.org/2000/svg" width="16" height="16"><g fill="#ddd"><path d="M 10 5.5 C 10 7.984375 7.984375 10 5.5 10 C 3.015625 10 1 7.984375 1 5.5 C 1 3.015625 3.015625 1 5.5 1 C 7.984375 1 10 3.015625 10 5.5 Z M 6 3.5 C 6 3.222656 5.777344 3 5.5 3 C 5.222656 3 5 3.222656 5 3.5 L 5 5 L 3.5 5 C 3.222656 5 3 5.222656 3 5.5 C 3 5.777344 3.222656 6 3.5 6 L 5 6 L 5 7.5 C 5 7.777344 5.222656 8 5.5 8 C 5.777344 8 6 7.777344 6 7.5 L 6 6 L 7.5 6 C 7.777344 6 8 5.777344 8 5.5 C 8 5.222656 7.777344 5 7.5 5 L 6 5 Z M 6 3.5"/><path d="M 12.5 4 L 10.792969 4 C 10.695312 3.652344 10.5625 3.316406 10.398438 3 L 12.5 3 C 13.878906 3 15 4.121094 15 5.5 L 15 9.785156 C 15 10.183594 14.84375 10.566406 14.5625 10.847656 L 10.847656 14.5625 C 10.566406 14.84375 10.183594 15 9.785156 15 L 5.5 15 C 4.121094 15 3 13.878906 3 12.5 L 3 10.398438 C 3.316406 10.5625 3.652344 10.695312 4 10.792969 L 4 12.5 C 4 13.328125 4.671875 14 5.5 14 L 9 14 L 9 12 C 9 10.34375 10.34375 9 12 9 L 14 9 L 14 5.5 C 14 4.671875 13.328125 4 12.5 4 Z M 10 13.953125 C 10.050781 13.925781 10.097656 13.894531 10.140625 13.855469 L 13.855469 10.140625 C 13.894531 10.097656 13.925781 10.050781 13.953125 10 L 12 10 C 10.894531 10 10 10.894531 10 12 Z M 10 13.953125"/></g></svg>

<svg xmlns="http://www.w3.org/2000/svg" width="16" height="16"><g fill="#ddd"><path d="M10 5.5a4.501 4.501 0 01-9 0 4.501 4.501 0 019 0zm-4-2c0-.277-.223-.5-.5-.5s-.5.223-.5.5V5H3.5c-.277 0-.5.223-.5.5s.223.5.5.5H5v1.5c0 .277.223.5.5.5s.5-.223.5-.5V6h1.5c.277 0 .5-.223.5-.5S7.777 5 7.5 5H6zm0 0"/><path d="M12.5 4h-1.707a5.273 5.273 0 00-.395-1H12.5C13.879 3 15 4.121 15 5.5v4.285c0 .399-.156.781-.438 1.063l-3.714 3.714A1.502 1.502 0 019.785 15H5.5A2.502 2.502 0 013 12.5v-2.102c.316.165.652.297 1 .395V12.5A1.5 1.5 0 005.5 14H9v-2a3 3 0 013-3h2V5.5A1.5 1.5 0 0012.5 4zM10 13.953a.697.697 0 00.14-.098l3.715-3.714c.04-.043.07-.09.098-.141H12c-1.105 0-2 .895-2 2zm0 0"/></g></svg>
